X:49
T:King Of The Fairies
S:The Session: https://thesession.org/tunes/475#setting475
C:Traditional
R:hornpipe
K:Edor
M:4/4
L:1/8
Q:1/4=138
B,2|: EDEF GFGA| B2B2 G2GA| B2E2 EFGE| FGFE D2B,2| 
| EDEF GFGA| BAGB d3c| B2E2 GFE_E|1 E6 B,2 |2 E6 d2:| 
|: e2e2 Bdef| gagf e3f| e2B2 BABc| dedc BcdB|
| e2B2 Bdef| gagf efed| Bdeg fedf| e6 ef|
| g3e f3d| edBc d3e| dBAF GABc| dBAF GFED|
| B,2E2 EFGA| B2e2 edef| e2B2 BAGF|1 E6 d2:|2 E8|]

